dist/assets/img/filterMobile.svg

<svg width="19" height="16" viewBox="0 0 19 16" fill="none" xmlns="http://www.w3.org/2000/svg">
<path d="M10.5418 1.71237H0.668896C0.294314 1.71237 0 2.00669 0 2.38127C0 2.75585 0.294314 3.05017 0.668896 3.05017H10.5418C10.8361 4.04013 11.7458 4.76254 12.8428 4.76254C13.913 4.76254 14.8495 4.04013 15.1171 3.05017H17.5518C17.9264 3.05017 18.2207 2.75585 18.2207 2.38127C18.2207 2.00669 17.9264 1.71237 17.5518 1.71237H15.1171C14.8227 0.722408 13.913 0 12.8428 0C11.7458 0 10.8361 0.722408 10.5418 1.71237ZM13.8595 2.38127C13.8595 2.9699 13.3779 3.42475 12.8161 3.42475C12.2542 3.42475 11.7726 2.9699 11.7726 2.38127C11.7726 1.79264 12.2542 1.33779 12.8161 1.33779C13.3512 1.33779 13.8595 1.79264 13.8595 2.38127Z" fill="#72BF44"/>
<path d="M2.51505 7.06351H0.668896C0.294314 7.06351 0 7.35782 0 7.73241C0 8.10699 0.294314 8.4013 0.668896 8.4013H2.51505C2.80936 9.39127 3.71906 10.1137 4.81605 10.1137C5.88629 10.1137 6.82274 9.39127 7.0903 8.4013H17.5518C17.9264 8.4013 18.2207 8.10699 18.2207 7.73241C18.2207 7.35782 17.9264 7.06351 17.5518 7.06351H7.0903C6.79599 6.07354 5.88629 5.35114 4.81605 5.35114C3.71906 5.35114 2.80936 6.07354 2.51505 7.06351ZM5.83277 7.73241C5.83277 8.32103 5.35117 8.77588 4.7893 8.77588C4.22742 8.77588 3.74582 8.32103 3.74582 7.73241C3.74582 7.14378 4.22742 6.68893 4.7893 6.68893C5.35117 6.68893 5.83277 7.14378 5.83277 7.73241Z" fill="#72BF44"/>
<path d="M7.3311 12.9499H0.668896C0.294314 12.9499 0 13.2442 0 13.6188C0 13.9933 0.294314 14.2877 0.668896 14.2877H7.3311C7.62542 15.2776 8.53512 16 9.63211 16C10.7023 16 11.6388 15.2776 11.9064 14.2877H17.5518C17.9264 14.2877 18.2207 13.9933 18.2207 13.6188C18.2207 13.2442 17.9264 12.9499 17.5518 12.9499H11.9064C11.612 11.9599 10.7023 11.2375 9.63211 11.2375C8.53512 11.2375 7.62542 11.9599 7.3311 12.9499ZM10.6488 13.6188C10.6488 14.2074 10.1672 14.6622 9.60535 14.6622C9.04348 14.6622 8.56187 14.2074 8.56187 13.6188C8.56187 13.0301 9.04348 12.5753 9.60535 12.5753C10.1672 12.5753 10.6488 13.0301 10.6488 13.6188Z" fill="#72BF44"/>
</svg>

<svg width="19" height="16" fill="none" xmlns="http://www.w3.org/2000/svg"><path d="M10.542 1.712H.669a.662.662 0 0 0-.669.67c0 .374.294.668.669.668h9.873a2.392 2.392 0 0 0 2.3 1.713c1.071 0 2.008-.723 2.275-1.713h2.435a.662.662 0 0 0 .669-.669.662.662 0 0 0-.67-.669h-2.434a2.384 2.384 0 0 0-4.575 0Zm3.318.67a1.045 1.045 0 0 1-2.087 0c0-.59.481-1.044 1.043-1.044.535 0 1.043.455 1.043 1.043ZM2.515 7.064H.669A.662.662 0 0 0 0 7.732c0 .375.294.67.669.67h1.846a2.392 2.392 0 0 0 2.301 1.712c1.07 0 2.007-.723 2.274-1.713h10.462a.662.662 0 0 0 .669-.669.662.662 0 0 0-.67-.668H7.092a2.384 2.384 0 0 0-4.576 0Zm3.318.668a1.045 1.045 0 0 1-2.087 0 1.044 1.044 0 0 1 2.087 0Zm1.498 5.218H.67a.662.662 0 0 0-.669.669c0 .374.294.669.669.669h6.66A2.392 2.392 0 0 0 9.632 16c1.07 0 2.007-.722 2.274-1.712h5.646a.662.662 0 0 0 .669-.67.662.662 0 0 0-.67-.668h-5.645a2.384 2.384 0 0 0-4.575 0Zm3.318.669a1.045 1.045 0 0 1-2.087 0 1.044 1.044 0 0 1 2.087 0Z" fill="#72BF44"/></svg>
